vue/public/icons/dashboard.svg

<?xml version="1.0" encoding="UTF-8" standalone="no"?>
<svg
   width="15"
   height="15"
   viewBox="0 0 25.3125 26.25"
   id="dashboard"
   version="1.1"
   sodipodi:docname="dashboard.svg"
   inkscape:version="1.3.2 (091e20e, 2023-11-25)"
   xmlns:inkscape="http://www.inkscape.org/namespaces/inkscape"
   xmlns:sodipodi="http://sodipodi.sourceforge.net/DTD/sodipodi-0.dtd"
   xmlns="http://www.w3.org/2000/svg"
   xmlns:svg="http://www.w3.org/2000/svg">
  <sodipodi:namedview
     id="namedview4"
     pagecolor="#ffffff"
     bordercolor="#000000"
     borderopacity="0.25"
     inkscape:showpageshadow="2"
     inkscape:pageopacity="0.0"
     inkscape:pagecheckerboard="0"
     inkscape:deskcolor="#d1d1d1"
     showgrid="false"
     showguides="true"
     inkscape:zoom="23.616176"
     inkscape:cx="7.7065821"
     inkscape:cy="6.9867365"
     inkscape:window-width="1470"
     inkscape:window-height="847"
     inkscape:window-x="0"
     inkscape:window-y="37"
     inkscape:window-maximized="0"
     inkscape:current-layer="g4" />
  <g
     clip-path="url(#clip0_1183_1875)"
     id="g4">
    <g
       id="g5"
       transform="matrix(0.98041373,0,0,0.98041373,-0.57931084,-0.61583961)">
      <path
         d="m 1.81248,12.7163 -6e-5,10e-5 0.00295,0.003 c 0.49348,0.5134 1.1994,0.8448 1.94386,0.8448 H 10.298 c 0.7796,0 1.45,-0.3324 1.9746,-0.8417 l 2e-4,2e-4 0.0057,-0.0064 c 0.4896,-0.5453 0.8072,-1.2402 0.8072,-2.0465 V 3.86978 c 0,-0.77107 -0.3174,-1.46594 -0.7733,-1.97624 l 10e-5,-5e-5 L 12.3093,1.89021 12.2771,1.85667 C 11.7794,1.30291 11.0708,1.01038 10.298,1.01038 H 3.75923 c -0.74,0 -1.4482,0.29315 -1.94533,0.84628 -0.49266,0.51303 -0.80865,1.2441 -0.80865,2.01312 v 6.80002 c 0,0.8063 0.31761,1.5012 0.80723,2.0465 z m 9.30542,-1.2216 -0.0348,0.0363 v 0.0279 c -0.2175,0.1802 -0.5066,0.3179 -0.7851,0.3179 H 3.75923 c -0.27571,0 -0.53471,-0.1352 -0.75135,-0.3176 V 11.5253 L 2.96608,11.488 C 2.76197,11.3059 2.63714,10.9924 2.63714,10.6698 V 3.86978 c 0,-0.31717 0.12131,-0.60192 0.3358,-0.8248 l 4e-5,-4e-5 C 3.18754,2.82181 3.45916,2.69774 3.75923,2.69774 H 10.298 c 0.2874,0 0.5754,0.11353 0.7851,0.31253 v 0.03908 l 0.0418,0.03729 c 0.2066,0.18401 0.3289,0.46412 0.3289,0.78314 v 6.80002 c 0,0.3145 -0.1534,0.6349 -0.3359,0.8249 z"
         stroke-width="0.25"
         id="path2" />
      <path
         d="m 14.7244,1.85511 c -0.4935,0.5131 -0.8101,1.24487 -0.8101,2.01467 v 6.80002 c 0,0.8063 0.3176,1.5012 0.8071,2.0465 l -2e-4,2e-4 0.0062,0.006 c 0.5246,0.5093 1.195,0.8417 1.9746,0.8417 h 6.5387 c 0.7458,0 1.4161,-0.3323 1.907,-0.8064 v 0 l 0.0032,-0.0033 0.0337,-0.035 c 0,-10e-5 10e-5,-10e-5 10e-5,-10e-5 0.5285,-0.5495 0.81,-1.2467 0.81,-2.0496 V 3.86978 c 0,-0.76461 -0.2794,-1.49801 -0.81,-2.01472 C 24.6876,1.30297 23.9801,1.01038 23.2407,1.01038 H 16.702 c -0.7761,0 -1.4489,0.29477 -1.9776,0.84473 z m 0,0 0.0901,0.08664 z m 9.3095,9.63289 -3e-4,-3e-4 -0.0066,0.0069 -0.0336,0.035 -3e-4,-3e-4 -0.0062,0.0075 c -0.1772,0.2151 -0.4445,0.34 -0.7462,0.34 H 16.702 c -0.2785,0 -0.5676,-0.1377 -0.7851,-0.3179 V 11.531 L 15.882,11.4947 c -0.1825,-0.19 -0.3358,-0.5104 -0.3358,-0.8249 V 3.86978 c 0,-0.30912 0.1483,-0.59576 0.3391,-0.82822 0.2118,-0.21835 0.5145,-0.34382 0.8167,-0.34382 h 6.5387 c 0.3001,0 0.5718,0.12407 0.7863,0.3472 v 4e-5 c 0.2145,0.22288 0.3358,0.50764 0.3358,0.8248 v 6.80002 c 0,0.3226 -0.1248,0.6361 -0.3289,0.8182 z"
         stroke-width="0.25"
         id="path3" />
      <path
         d="m 14.7274,15.2775 h -10e-5 l -0.0029,0.003 c -0.494,0.5137 -0.8101,1.2456 -0.8101,2.0494 v 6.7653 c 0,0.804 0.3161,1.536 0.8101,2.0496 l -10e-5,10e-5 0.0031,0.003 c 0.5246,0.5093 1.195,0.8417 1.9746,0.8417 h 6.5387 c 0.7438,0 1.449,-0.3307 1.9424,-0.8432 0.5322,-0.5173 0.8116,-1.2517 0.8116,-2.0512 v -6.7653 c 0,-0.7992 -0.2794,-1.5336 -0.8115,-2.0509 -0.4935,-0.5126 -1.1987,-0.8432 -1.9425,-0.8432 H 16.702 c -0.7796,0 -1.45,0.3323 -1.9746,0.8417 z m 9.2996,1.1928 v 0 c 0.2133,0.2217 0.3358,0.506 0.3358,0.8596 v 6.7653 c 0,0.3535 -0.1225,0.638 -0.3358,0.8599 -0.2145,0.2231 -0.4862,0.3472 -0.7863,0.3472 H 16.702 c -0.3022,0 -0.6049,-0.1255 -0.8167,-0.3438 -0.1895,-0.2312 -0.3391,-0.5183 -0.3391,-0.8633 v -6.7653 c 0,-0.3451 0.1496,-0.6321 0.3391,-0.863 0.2118,-0.2184 0.5146,-0.344 0.8167,-0.344 h 6.5387 c 0.3001,0 0.5717,0.1242 0.7863,0.3474 z"
         stroke-width="0.25"
         id="path4" />
      <path
         d="m 1.81248,26.172416 -6e-5,1e-4 0.00295,0.003 c 0.49348,0.5134 1.1994,0.8448 1.94386,0.8448 H 10.298 c 0.7796,0 1.45,-0.3324 1.9746,-0.8417 l 2e-4,2e-4 0.0057,-0.0064 c 0.4896,-0.5453 0.8072,-1.2402 0.8072,-2.0465 v -6.80002 c 0,-0.77107 -0.3174,-1.46594 -0.7733,-1.97624 l 10e-5,-5e-5 -0.0032,-0.0033 -0.0322,-0.03354 c -0.4977,-0.55376 -1.2063,-0.84629 -1.9791,-0.84629 H 3.75923 c -0.74,0 -1.4482,0.29315 -1.94533,0.84628 -0.49266,0.51303 -0.80865,1.2441 -0.80865,2.01312 v 6.80002 c 0,0.8063 0.31761,1.5012 0.80723,2.0465 z"
         stroke-width="0.25"
         id="path2-1"
         sodipodi:nodetypes="cccsscccssccccsscsscc" />
    </g>
  </g>
  <defs
     id="defs4">
    <clipPath
       id="clip0_1183_1875">
      <rect
         width="27"
         height="28"
         fill="#ffffff"
         id="rect4"
         x="0"
         y="0" />
    </clipPath>
  </defs>
</svg>

<svg
    xmlns="http://www.w3.org/2000/svg"
    width="16"
    height="16"
    viewBox="0 0 27 28"
    fill="none"
>
    <g clip-path="url(#clip0_1183_1875)">
        <path
            d="M12.3154 15.322L12.3152 15.3222C12.7679 15.8652 13.0857 16.5586 13.0857 17.3299V24.0952C13.0857 24.8992 12.7697 25.6312 12.2756 26.1448C11.7815 26.6589 11.0754 26.9896 10.298 26.9896H3.75923C3.01477 26.9896 2.30886 26.6582 1.81537 26.1448C1.32128 25.6312 1.00525 24.8992 1.00525 24.0952V17.3299C1.00525 16.5262 1.32129 15.7942 1.81537 15.2806L12.3154 15.322ZM12.3154 15.322L12.3093 15.3156M12.3154 15.322L12.3093 15.3156M12.3093 15.3156L12.2756 15.2806C11.7815 14.7665 11.0754 14.4358 10.298 14.4358M12.3093 15.3156L10.298 14.4358M10.298 14.4358H3.75923M10.298 14.4358H3.75923M3.75923 14.4358C3.0148 14.4358 2.30889 14.7671 1.81541 15.2805L3.75923 14.4358ZM2.97295 16.4703L2.97299 16.4703C3.18758 16.2471 3.45921 16.1229 3.75923 16.1229H10.298C10.5854 16.1229 10.8734 16.2366 11.0831 16.4356V16.4691L11.118 16.5054C11.3325 16.7282 11.4538 17.0134 11.4538 17.3299V24.0952C11.4538 24.4402 11.3042 24.7273 11.1147 24.9585C10.9029 25.1768 10.6001 25.3023 10.298 25.3023H3.75923C3.45916 25.3023 3.18754 25.1782 2.97299 24.9551C2.75967 24.7332 2.63714 24.4487 2.63714 24.0952V17.3299C2.63714 16.9763 2.75967 16.692 2.97295 16.4703Z"
            fill="#CBCBCB"
            stroke="#CBCBCB"
            stroke-width="0.25"
        />
        <path
            d="M1.81248 12.7163L1.81242 12.7164L1.81537 12.7194C2.30885 13.2328 3.01477 13.5642 3.75923 13.5642H10.298C11.0776 13.5642 11.748 13.2318 12.2726 12.7225L12.2728 12.7227L12.2785 12.7163C12.7681 12.171 13.0857 11.4761 13.0857 10.6698V3.86978C13.0857 3.09871 12.7683 2.40384 12.3124 1.89354L12.3125 1.89349L12.3093 1.89021L12.2771 1.85667C11.7794 1.30291 11.0708 1.01038 10.298 1.01038H3.75923C3.01923 1.01038 2.31103 1.30353 1.8139 1.85666C1.32124 2.36969 1.00525 3.10076 1.00525 3.86978V10.6698C1.00525 11.4761 1.32286 12.171 1.81248 12.7163ZM11.1179 11.4947L11.0831 11.531V11.5589C10.8656 11.7391 10.5765 11.8768 10.298 11.8768H3.75923C3.48352 11.8768 3.22452 11.7416 3.00788 11.5592V11.5253L2.96608 11.488C2.76197 11.3059 2.63714 10.9924 2.63714 10.6698V3.86978C2.63714 3.55261 2.75845 3.26786 2.97294 3.04498L2.97298 3.04494C3.18754 2.82181 3.45916 2.69774 3.75923 2.69774H10.298C10.5854 2.69774 10.8734 2.81127 11.0831 3.01027V3.04935L11.1249 3.08664C11.3315 3.27065 11.4538 3.55076 11.4538 3.86978V10.6698C11.4538 10.9843 11.3004 11.3047 11.1179 11.4947Z"
            fill="#CBCBCB"
            stroke="#CBCBCB"
            stroke-width="0.25"
        />
        <path
            d="M14.7244 1.85511C14.2309 2.36821 13.9143 3.09998 13.9143 3.86978V10.6698C13.9143 11.4761 14.2319 12.171 14.7214 12.7163L14.7212 12.7165L14.7274 12.7225C15.252 13.2318 15.9224 13.5642 16.702 13.5642H23.2407C23.9865 13.5642 24.6568 13.2319 25.1477 12.7578L25.1477 12.7578L25.1509 12.7545L25.1846 12.7195C25.1846 12.7194 25.1847 12.7194 25.1847 12.7194C25.7132 12.1699 25.9947 11.4727 25.9947 10.6698V3.86978C25.9947 3.10517 25.7153 2.37177 25.1847 1.85506C24.6876 1.30297 23.9801 1.01038 23.2407 1.01038H16.702C15.9259 1.01038 15.2531 1.30515 14.7244 1.85511ZM14.7244 1.85511L14.8145 1.94175L14.7244 1.85511ZM24.0339 11.488L24.0336 11.4877L24.027 11.4946L23.9934 11.5296L23.9931 11.5293L23.9869 11.5368C23.8097 11.7519 23.5424 11.8768 23.2407 11.8768H16.702C16.4235 11.8768 16.1344 11.7391 15.9169 11.5589V11.531L15.882 11.4947C15.6995 11.3047 15.5462 10.9843 15.5462 10.6698V3.86978C15.5462 3.56066 15.6945 3.27402 15.8853 3.04156C16.0971 2.82321 16.3998 2.69774 16.702 2.69774H23.2407C23.5408 2.69774 23.8125 2.82181 24.027 3.04494L24.027 3.04498C24.2415 3.26786 24.3628 3.55262 24.3628 3.86978V10.6698C24.3628 10.9924 24.238 11.3059 24.0339 11.488Z"
            fill="#CBCBCB"
            stroke="#CBCBCB"
            stroke-width="0.25"
        />
        <path
            d="M14.7274 15.2775L14.7273 15.2775L14.7244 15.2805C14.2304 15.7942 13.9143 16.5261 13.9143 17.3299V24.0952C13.9143 24.8992 14.2304 25.6312 14.7244 26.1448L14.7243 26.1449L14.7274 26.1479C15.252 26.6572 15.9224 26.9896 16.702 26.9896H23.2407C23.9845 26.9896 24.6897 26.6589 25.1831 26.1464C25.7153 25.6291 25.9947 24.8947 25.9947 24.0952V17.3299C25.9947 16.5307 25.7153 15.7963 25.1832 15.279C24.6897 14.7664 23.9845 14.4358 23.2407 14.4358H16.702C15.9224 14.4358 15.252 14.7681 14.7274 15.2775ZM24.027 16.4703L24.027 16.4703C24.2403 16.692 24.3628 16.9763 24.3628 17.3299V24.0952C24.3628 24.4487 24.2403 24.7332 24.027 24.9551C23.8125 25.1782 23.5408 25.3023 23.2407 25.3023H16.702C16.3998 25.3023 16.0971 25.1768 15.8853 24.9585C15.6958 24.7273 15.5462 24.4402 15.5462 24.0952V17.3299C15.5462 16.9848 15.6958 16.6978 15.8853 16.4669C16.0971 16.2485 16.3999 16.1229 16.702 16.1229H23.2407C23.5408 16.1229 23.8124 16.2471 24.027 16.4703Z"
            fill="#CBCBCB"
            stroke="#CBCBCB"
            stroke-width="0.25"
        />
    </g>
    <defs>
        <clipPath id="clip0_1183_1875">
            <rect width="27" height="28" fill="white" />
        </clipPath>
    </defs>
</svg>
